src/static/logos/mapbox.svg

<?xml version="1.0" encoding="UTF-8"?>
<svg width="256px" height="256px" viewBox="0 0 256 256" version="1.1" xmlns="http://www.w3.org/2000/svg" xmlns:xlink="http://www.w3.org/1999/xlink" preserveAspectRatio="xMidYMid">
    <g>
        <path d="M128,0 C57.3048369,0 0,57.3048369 0,128 C0,198.695163 57.3048369,256 128,256 C198.695163,256 256,198.695163 256,128 C256,57.3048369 198.695163,0 128,0 Z M188.760405,159.388076 C144.989876,203.158605 66.807649,189.192351 66.807649,189.192351 C66.807649,189.192351 52.6974128,111.154106 96.6119235,67.2395951 C120.944882,42.9066367 161.259843,43.9145107 186.744657,69.2553431 C212.229471,94.5961755 213.093363,135.055118 188.760405,159.388076 L188.760405,159.388076 Z M142.686164,75.0146232 L130.15973,100.787402 L104.386952,113.313836 L130.15973,125.84027 L142.686164,151.613048 L155.212598,125.84027 L180.985377,113.313836 L155.212598,100.787402 L142.686164,75.0146232 Z" fill="#4264FB" fill-rule="nonzero"></path>
    </g>
</svg>

<svg width="256" height="256" xmlns="http://www.w3.org/2000/svg" preserveAspectRatio="xMidYMid"><path d="M128 0C57.305 0 0 57.305 0 128s57.305 128 128 128 128-57.305 128-128S198.695 0 128 0zm60.76 159.388c-43.77 43.77-121.952 29.804-121.952 29.804S52.698 111.154 96.612 67.24c24.333-24.333 64.648-23.325 90.133 2.015 25.484 25.341 26.348 65.8 2.015 90.133zm-46.074-84.373l-12.526 25.772-25.773 12.527 25.773 12.526 12.526 25.773 12.527-25.773 25.772-12.526-25.772-12.527-12.527-25.772z" fill="#4264FB"/></svg>
